X: 56
T: Chinquapin Hunting [2]
B: canberra pickers and fiddlers
M:2/4
L:1/8
R: Reel
Q: 1/4=100
K:D
V:1 
F/G/|A/B/A/F/ D/E/F/D/|"*"EA AF/G/|A/B/A/F/ D/E/F/D/|1 (3E/F/E/D D:|2 ED D||
|:A/c/|B/d/e/f/ e/d/B/d/|e/d/e/f/ e/d/A/c/|B/A/B/c/ d/B/G/A/|(3B/c/B/A A A/c/|
B/d/e/f/ e/d/B/d/|e/d/e/f/ e/g/f/a/|g/b/a/g/ f/e/d/c/|(3B/c/B/A A:|
"*"E/F/A/F/ E/F/A/F/||
% abcbook-tune_id 63ae8f1cbaa1b96f25950c3c
% abcbook-link-0 https://www.youtube.com/watch?v=uBtNEzVmJ7U

% abcbook-boost 0
% abcbook-tablature 
% abcbook-transpose 
% abcbook-lastupdated 1672384885413
% abcbook-soundfonts 
% abcbook-repeats 1


